X: 29807
T: O'Carolan's Sixth Unnamed Tune
R: jig
M: 6/8
K: Ddorian
A/F/|DDE FED|dde fed|cdc cAF|E/D/C/D/E/F/ GFE|
DDE FED|dde ff/e/f/g/|afd cAG|{EF}EDD D2||
d/e/|fga ge (3c/d/e/|fed cAc|d/e/fg ecA|AGF EDC|
D2d d/c/d/e/f/g/|afd g/e/c/d/e/g/|fg/f/e/d/ cAG|{EF}EDD D2||

